symbols/be/PVR-{40}.svg

<?xml version="1.0" encoding="UTF-8" standalone="no"?>
<!-- Initially created with Inkscape, optimized by hand -->

<svg
   version="1.1"
   width="20"
   height="17.320999"
   id="svg1"
   xmlns="http://www.w3.org/2000/svg"
   xmlns:svg="http://www.w3.org/2000/svg">
  <defs
     id="defs1" />
  <path
     id="Fond"
     d="M 20,17.320999 H 0 L 10,-1.2114258e-6 Z"
     fill="#0b9b7b"
     style="stroke-width:0.1" />
  <path
     style="font-size:10.6667px;font-family:Isonorm;-inkscape-font-specification:'Isonorm, Normal';fill:#ffffff;fill-rule:evenodd;stroke-width:0.377953;stroke-linejoin:bevel"
     d="m 12.1376,13.711818 c 0,-0.192001 -0.16,-0.352001 -0.352,-0.352001 H 11.07093 V 12.28248 c 0,-0.192001 -0.16,-0.341335 -0.352,-0.341335 -0.192,0 -0.36267,0.160001 -0.36267,0.352002 v 1.06667 H 8.69225 L 9.99359,8.8051358 c 0.0533,-0.202668 -0.0853,-0.426668 -0.34133,-0.426668 -0.128,-0.01067 -0.29867,0.07467 -0.34134,0.234667 l -1.44,5.0133492 c -0.032,0.138667 0.032,0.298668 0.096,0.341334 0.0853,0.07467 0.14933,0.106667 0.256,0.106667 h 2.13334 v 1.066671 c 0,0.192 0.17067,0.352001 0.36267,0.352001 0.192,0 0.352,-0.160001 0.352,-0.352001 v -1.066671 h 0.71467 c 0.192,0 0.352,-0.170667 0.352,-0.362667 z"
     id="text1"
     aria-label="4" />
</svg>

<?xml version="1.0" encoding="UTF-8"?>
<svg xmlns="http://www.w3.org/2000/svg" xmlns:xlink="http://www.w3.org/1999/xlink" width="20" height="17.320999" viewBox="0 0 20 17.320999">
<path fill-rule="nonzero" fill="rgb(4.313725%, 60.784314%, 48.235294%)" fill-opacity="1" d="M 20 17.320312 L 0 17.320312 L 10 0 Z M 20 17.320312 "/>
<path fill-rule="evenodd" fill="rgb(100%, 100%, 100%)" fill-opacity="1" d="M 12.136719 13.710938 C 12.136719 13.519531 11.976562 13.359375 11.785156 13.359375 L 11.070312 13.359375 L 11.070312 12.28125 C 11.070312 12.089844 10.910156 11.941406 10.71875 11.941406 C 10.527344 11.941406 10.355469 12.101562 10.355469 12.292969 L 10.355469 13.359375 L 8.691406 13.359375 L 9.992188 8.804688 C 10.046875 8.601562 9.910156 8.378906 9.652344 8.378906 C 9.523438 8.367188 9.355469 8.453125 9.3125 8.613281 L 7.871094 13.625 C 7.839844 13.765625 7.902344 13.925781 7.96875 13.96875 C 8.050781 14.042969 8.117188 14.074219 8.222656 14.074219 L 10.355469 14.074219 L 10.355469 15.140625 C 10.355469 15.332031 10.527344 15.492188 10.71875 15.492188 C 10.910156 15.492188 11.070312 15.332031 11.070312 15.140625 L 11.070312 14.074219 L 11.785156 14.074219 C 11.976562 14.074219 12.136719 13.902344 12.136719 13.710938 Z M 12.136719 13.710938 "/>
</svg>
